public/images/hacker.svg

<svg width="111" height="40" viewBox="0 0 111 40" fill="none" xmlns="http://www.w3.org/2000/svg">
<mask id="mask0_347_1475" style="mask-type:alpha" maskUnits="userSpaceOnUse" x="0" y="4" width="111" height="35">
<rect y="4.35278" width="111" height="34.098" rx="17.049" fill="white"/>
</mask>
<g mask="url(#mask0_347_1475)">
</g>
<mask id="mask1_347_1475" style="mask-type:alpha" maskUnits="userSpaceOnUse" x="0" y="4" width="111" height="35">
<rect y="4.35278" width="111" height="34.098" rx="17.049" fill="white"/>
</mask>
<g mask="url(#mask1_347_1475)">
</g>
<g filter="url(#filter0_b_347_1475)">
<rect y="4.35278" width="111" height="34.098" rx="17.049" fill="white" fill-opacity="0.22"/>
</g>
<g clip-path="url(#clip0_347_1475)">
<path d="M65.0991 36.5768H45.8711C44.5401 36.5758 43.2514 36.1094 42.228 35.2584L40.7731 34.0481C40.0328 33.4343 39.4611 32.6421 39.1117 31.7462C38.7623 30.8504 38.6468 29.8803 38.776 28.9274L39.7408 21.6933C39.8514 20.8565 40.1474 20.0549 40.6073 19.347C41.0671 18.6391 41.6791 18.0428 42.3987 17.6016L46.0385 15.3574C45.3743 13.8427 44.9946 12.2188 44.9184 10.5666C44.9184 6.42126 51.9387 0 55.4851 0C59.0314 0 66.0517 6.42126 66.0517 10.5666C65.9757 12.2187 65.5963 13.8427 64.9324 15.3574L68.7364 17.7015C69.4004 18.1124 69.9731 18.6551 70.4189 19.2961C70.8648 19.9372 71.1744 20.6629 71.3285 21.4283L72.234 28.9737C72.3487 29.9156 72.225 30.8713 71.8742 31.7529C71.5234 32.6346 70.9568 33.414 70.2263 34.0197L68.7421 35.2576C67.7191 36.1092 66.4302 36.5759 65.0991 36.5768Z" fill="url(#paint0_linear_347_1475)"/>
<g filter="url(#filter1_i_347_1475)">
<path d="M55.485 19.5071C52.5678 19.5071 48.9824 15.0261 48.9824 11.379C48.9821 11.236 49.0196 11.0955 49.0909 10.9716C49.1623 10.8478 49.265 10.7449 49.3888 10.6734L53.4659 8.34471C54.0802 7.99511 54.7749 7.81128 55.4817 7.81128C56.1885 7.81128 56.8832 7.99511 57.4975 8.34471L61.5811 10.6751C61.7047 10.7464 61.8073 10.849 61.8786 10.9726C61.9499 11.0961 61.9875 11.2363 61.9875 11.379C61.9875 15.0261 58.4022 19.5071 55.485 19.5071Z" fill="white" fill-opacity="0.1"/>
</g>
<path d="M49.1324 11.3787L49.1324 11.379C49.1324 13.1584 50.0099 15.1584 51.2569 16.717C52.5082 18.2811 54.0953 19.3571 55.485 19.3571C56.8746 19.3571 58.4617 18.2811 59.7131 16.717C60.96 15.1584 61.8375 13.1584 61.8375 11.379C61.8375 11.2626 61.8069 11.1483 61.7487 11.0476C61.6906 10.9469 61.607 10.8633 61.5064 10.8052C61.5063 10.8051 61.5062 10.805 61.5061 10.805L57.4233 8.47508L49.1324 11.3787ZM49.1324 11.3787C49.1322 11.2621 49.1627 11.1475 49.2209 11.0465M49.1324 11.3787L49.2209 11.0465M49.2209 11.0465C49.279 10.9456 49.3627 10.8618 49.4635 10.8035M49.2209 11.0465L49.4635 10.8035M49.4635 10.8035C49.4636 10.8034 49.4637 10.8034 49.4638 10.8033M49.4635 10.8035L49.4638 10.8033M49.4638 10.8033L53.5401 8.47508C54.1318 8.13834 54.8009 7.96128 55.4817 7.96128C56.1625 7.96128 56.8315 8.13831 57.4232 8.47499L49.4638 10.8033Z" stroke="url(#paint1_linear_347_1475)" stroke-opacity="0.1" stroke-width="0.3"/>
<g filter="url(#filter2_i_347_1475)">
<path d="M46.3311 19.1691C46.4568 19.3443 46.6469 19.4623 46.8596 19.4973C47.0724 19.5323 47.2903 19.4813 47.4654 19.3557C47.6406 19.23 47.7586 19.0399 47.7936 18.8272C47.8286 18.6144 47.7776 18.3965 47.652 18.2214C47.0115 17.3274 46.4713 16.3658 46.041 15.3538L46.0312 15.3489V15.357L44.6494 16.2113C45.1061 17.2528 45.6697 18.244 46.3311 19.1691Z" fill="white" fill-opacity="0.1"/>
</g>
<g filter="url(#filter3_i_347_1475)">
<path d="M64.6432 19.1691C64.5175 19.3443 64.3274 19.4623 64.1147 19.4973C63.9019 19.5323 63.684 19.4813 63.5089 19.3557C63.3337 19.23 63.2157 19.0399 63.1807 18.8272C63.1457 18.6144 63.1967 18.3965 63.3223 18.2214C63.9633 17.3276 64.5039 16.3659 64.9342 15.3538L64.9431 15.3489V15.357L66.3249 16.2113C65.8685 17.2529 65.3049 18.2442 64.6432 19.1691Z" fill="white" fill-opacity="0.1"/>
</g>
<g filter="url(#filter4_bi_347_1475)">
<path d="M66.5071 24.5414C66.3444 24.379 66.1238 24.2879 65.8939 24.2881H45.0754C44.8454 24.2881 44.6247 24.3795 44.4621 24.5422C44.2994 24.7048 44.208 24.9255 44.208 25.1555V39.0345C44.208 39.2645 44.2994 39.4852 44.4621 39.6478C44.6247 39.8105 44.8454 39.9019 45.0754 39.9019H65.8939C66.1239 39.9019 66.3445 39.8105 66.5072 39.6478C66.6699 39.4852 66.7613 39.2645 66.7613 39.0345V25.1555C66.7614 25.0415 66.739 24.9285 66.6954 24.8231C66.6518 24.7178 66.5878 24.622 66.5071 24.5414Z" fill="#1D1D1D" fill-opacity="0.05"/>
<path d="M66.5071 24.5414C66.3444 24.379 66.1238 24.2879 65.8939 24.2881H45.0754C44.8454 24.2881 44.6247 24.3795 44.4621 24.5422C44.2994 24.7048 44.208 24.9255 44.208 25.1555V39.0345C44.208 39.2645 44.2994 39.4852 44.4621 39.6478C44.6247 39.8105 44.8454 39.9019 45.0754 39.9019H65.8939C66.1239 39.9019 66.3445 39.8105 66.5072 39.6478C66.6699 39.4852 66.7613 39.2645 66.7613 39.0345V25.1555C66.7614 25.0415 66.739 24.9285 66.6954 24.8231C66.6518 24.7178 66.5878 24.622 66.5071 24.5414Z" fill="url(#paint2_linear_347_1475)" fill-opacity="0.2"/>
<path d="M66.5071 24.5414C66.3444 24.379 66.1238 24.2879 65.8939 24.2881H45.0754C44.8454 24.2881 44.6247 24.3795 44.4621 24.5422C44.2994 24.7048 44.208 24.9255 44.208 25.1555V39.0345C44.208 39.2645 44.2994 39.4852 44.4621 39.6478C44.6247 39.8105 44.8454 39.9019 45.0754 39.9019H65.8939C66.1239 39.9019 66.3445 39.8105 66.5072 39.6478C66.6699 39.4852 66.7613 39.2645 66.7613 39.0345V25.1555C66.7614 25.0415 66.739 24.9285 66.6954 24.8231C66.6518 24.7178 66.5878 24.622 66.5071 24.5414ZM66.5071 24.5414L66.4011 24.6475M66.5071 24.5414L66.4012 24.6476C66.4012 24.6475 66.4011 24.6475 66.4011 24.6475M66.4011 24.6475C66.2665 24.5132 66.0841 24.4379 65.894 24.4381L65.8939 24.4381L45.0754 24.4381C44.8852 24.4381 44.7027 24.5137 44.5681 24.6482C44.4336 24.7828 44.358 24.9652 44.358 25.1555V39.0345C44.358 39.2247 44.4336 39.4072 44.5681 39.5418C44.7027 39.6763 44.8852 39.7519 45.0754 39.7519H65.8939C66.0841 39.7519 66.2666 39.6763 66.4012 39.5418C66.5357 39.4072 66.6113 39.2247 66.6113 39.0345V25.1555V25.1554C66.6114 25.0611 66.5928 24.9677 66.5568 24.8805C66.5207 24.7933 66.4678 24.7141 66.4011 24.6475Z" stroke="url(#paint3_linear_347_1475)" stroke-opacity="0.1" stroke-width="0.3"/>
</g>
<g filter="url(#filter5_i_347_1475)">
<path d="M55.4846 34.6973C56.9218 34.6973 58.0869 33.5322 58.0869 32.095C58.0869 30.6578 56.9218 29.4927 55.4846 29.4927C54.0474 29.4927 52.8823 30.6578 52.8823 32.095C52.8823 33.5322 54.0474 34.6973 55.4846 34.6973Z" fill="white" fill-opacity="0.1"/>
</g>
</g>
<defs>
<filter id="filter0_b_347_1475" x="-80" y="-75.6472" width="271" height="194.098" filterUnits="userSpaceOnUse" color-interpolation-filters="sRGB">
<feFlood flood-opacity="0" result="BackgroundImageFix"/>
<feGaussianBlur in="BackgroundImageFix" stdDeviation="40"/>
<feComposite in2="SourceAlpha" operator="in" result="effect1_backgroundBlur_347_1475"/>
<feBlend mode="normal" in="SourceGraphic" in2="effect1_backgroundBlur_347_1475" result="shape"/>
</filter>
<filter id="filter1_i_347_1475" x="48.9824" y="7.81128" width="13.0049" height="13.6958" filterUnits="userSpaceOnUse" color-interpolation-filters="sRGB">
<feFlood flood-opacity="0" result="BackgroundImageFix"/>
<feBlend mode="normal" in="SourceGraphic" in2="BackgroundImageFix" result="shape"/>
<feColorMatrix in="SourceAlpha" type="matrix" values="0 0 0 0 0 0 0 0 0 0 0 0 0 0 0 0 0 0 127 0" result="hardAlpha"/>
<feOffset dy="2"/>
<feGaussianBlur stdDeviation="1"/>
<feComposite in2="hardAlpha" operator="arithmetic" k2="-1" k3="1"/>
<feColorMatrix type="matrix" values="0 0 0 0 1 0 0 0 0 1 0 0 0 0 1 0 0 0 0.1 0"/>
<feBlend mode="normal" in2="shape" result="effect1_innerShadow_347_1475"/>
</filter>
<filter id="filter2_i_347_1475" x="44.6494" y="15.3489" width="3.15479" height="6.15918" filterUnits="userSpaceOnUse" color-interpolation-filters="sRGB">
<feFlood flood-opacity="0" result="BackgroundImageFix"/>
<feBlend mode="normal" in="SourceGraphic" in2="BackgroundImageFix" result="shape"/>
<feColorMatrix in="SourceAlpha" type="matrix" values="0 0 0 0 0 0 0 0 0 0 0 0 0 0 0 0 0 0 127 0" result="hardAlpha"/>
<feOffset dy="2"/>
<feGaussianBlur stdDeviation="1"/>
<feComposite in2="hardAlpha" operator="arithmetic" k2="-1" k3="1"/>
<feColorMatrix type="matrix" values="0 0 0 0 1 0 0 0 0 1 0 0 0 0 1 0 0 0 0.1 0"/>
<feBlend mode="normal" in2="shape" result="effect1_innerShadow_347_1475"/>
</filter>
<filter id="filter3_i_347_1475" x="63.1699" y="15.3489" width="3.15479" height="6.15918" filterUnits="userSpaceOnUse" color-interpolation-filters="sRGB">
<feFlood flood-opacity="0" result="BackgroundImageFix"/>
<feBlend mode="normal" in="SourceGraphic" in2="BackgroundImageFix" result="shape"/>
<feColorMatrix in="SourceAlpha" type="matrix" values="0 0 0 0 0 0 0 0 0 0 0 0 0 0 0 0 0 0 127 0" result="hardAlpha"/>
<feOffset dy="2"/>
<feGaussianBlur stdDeviation="1"/>
<feComposite in2="hardAlpha" operator="arithmetic" k2="-1" k3="1"/>
<feColorMatrix type="matrix" values="0 0 0 0 1 0 0 0 0 1 0 0 0 0 1 0 0 0 0.1 0"/>
<feBlend mode="normal" in2="shape" result="effect1_innerShadow_347_1475"/>
</filter>
<filter id="filter4_bi_347_1475" x="38.208" y="18.2881" width="34.5532" height="27.6138" filterUnits="userSpaceOnUse" color-interpolation-filters="sRGB">
<feFlood flood-opacity="0" result="BackgroundImageFix"/>
<feGaussianBlur in="BackgroundImageFix" stdDeviation="3"/>
<feComposite in2="SourceAlpha" operator="in" result="effect1_backgroundBlur_347_1475"/>
<feBlend mode="normal" in="SourceGraphic" in2="effect1_backgroundBlur_347_1475" result="shape"/>
<feColorMatrix in="SourceAlpha" type="matrix" values="0 0 0 0 0 0 0 0 0 0 0 0 0 0 0 0 0 0 127 0" result="hardAlpha"/>
<feOffset dy="1"/>
<feGaussianBlur stdDeviation="1.5"/>
<feComposite in2="hardAlpha" operator="arithmetic" k2="-1" k3="1"/>
<feColorMatrix type="matrix" values="0 0 0 0 1 0 0 0 0 1 0 0 0 0 1 0 0 0 0.15 0"/>
<feBlend mode="normal" in2="shape" result="effect2_innerShadow_347_1475"/>
</filter>
<filter id="filter5_i_347_1475" x="52.8823" y="29.4927" width="5.20459" height="7.20459" filterUnits="userSpaceOnUse" color-interpolation-filters="sRGB">
<feFlood flood-opacity="0" result="BackgroundImageFix"/>
<feBlend mode="normal" in="SourceGraphic" in2="BackgroundImageFix" result="shape"/>
<feColorMatrix in="SourceAlpha" type="matrix" values="0 0 0 0 0 0 0 0 0 0 0 0 0 0 0 0 0 0 127 0" result="hardAlpha"/>
<feOffset dy="2"/>
<feGaussianBlur stdDeviation="1"/>
<feComposite in2="hardAlpha" operator="arithmetic" k2="-1" k3="1"/>
<feColorMatrix type="matrix" values="0 0 0 0 1 0 0 0 0 1 0 0 0 0 1 0 0 0 0.1 0"/>
<feBlend mode="normal" in2="shape" result="effect1_innerShadow_347_1475"/>
</filter>
<linearGradient id="paint0_linear_347_1475" x1="38.7246" y1="0" x2="78.6299" y2="9.29446" gradientUnits="userSpaceOnUse">
<stop stop-color="#75A5FF"/>
<stop offset="0.703125" stop-color="#2339FF"/>
</linearGradient>
<linearGradient id="paint1_linear_347_1475" x1="49.3888" y1="8.34291" x2="61.9875" y2="8.34291" gradientUnits="userSpaceOnUse">
<stop stop-color="#3CDEB6"/>
<stop offset="0.65625" stop-color="#364AFF"/>
</linearGradient>
<linearGradient id="paint2_linear_347_1475" x1="44.208" y1="24.2881" x2="69.1348" y2="33.4305" gradientUnits="userSpaceOnUse">
<stop stop-color="#87FFE1"/>
<stop offset="0.776042" stop-color="#5C6DFF"/>
</linearGradient>
<linearGradient id="paint3_linear_347_1475" x1="44.9128" y1="24.9978" x2="66.7613" y2="24.9978" gradientUnits="userSpaceOnUse">
<stop stop-color="#3CDEB6"/>
<stop offset="0.65625" stop-color="#364AFF"/>
</linearGradient>
<clipPath id="clip0_347_1475">
<rect width="39.902" height="39.902" fill="white" transform="translate(35.5488)"/>
</clipPath>
</defs>
</svg>

<svg width="111" height="40" fill="none" xmlns="http://www.w3.org/2000/svg"><mask id="a" style="mask-type:alpha" maskUnits="userSpaceOnUse" x="0" y="4" width="111" height="35"><rect y="4.353" width="111" height="34.098" rx="17.049" fill="#fff"/></mask><mask id="b" style="mask-type:alpha" maskUnits="userSpaceOnUse" x="0" y="4" width="111" height="35"><rect y="4.353" width="111" height="34.098" rx="17.049" fill="#fff"/></mask><g filter="url(#c)"><rect y="4.353" width="111" height="34.098" rx="17.049" fill="#fff" fill-opacity=".22"/></g><g clip-path="url(#d)"><path d="M65.1 36.577H45.87a5.705 5.705 0 0 1-3.643-1.319l-1.455-1.21a5.663 5.663 0 0 1-1.997-5.12l.965-7.235a5.67 5.67 0 0 1 2.658-4.091l3.64-2.245a13.475 13.475 0 0 1-1.12-4.79C44.918 6.42 51.938 0 55.484 0c3.546 0 10.567 6.421 10.567 10.567a13.477 13.477 0 0 1-1.12 4.79l3.804 2.345a5.708 5.708 0 0 1 2.593 3.726l.905 7.546a5.665 5.665 0 0 1-2.008 5.046l-1.484 1.238a5.7 5.7 0 0 1-3.643 1.319Z" fill="url(#e)"/><g filter="url(#f)"><path d="M55.485 19.507c-2.917 0-6.503-4.48-6.503-8.128a.813.813 0 0 1 .407-.706l4.077-2.328a4.076 4.076 0 0 1 4.032 0l4.083 2.33a.812.812 0 0 1 .406.704c0 3.647-3.585 8.128-6.502 8.128Z" fill="#fff" fill-opacity=".1"/></g><path d="M49.132 11.379c0 1.78.878 3.78 2.125 5.338 1.251 1.564 2.838 2.64 4.228 2.64 1.39 0 2.977-1.076 4.228-2.64 1.247-1.559 2.124-3.559 2.124-5.338a.662.662 0 0 0-.33-.574l-4.084-2.33-8.29 2.904Zm0 0c0-.117.03-.231.089-.332m-.089.332.089-.332m0 0a.663.663 0 0 1 .243-.244m-.243.243.243-.242m0 0 4.076-2.329a3.925 3.925 0 0 1 3.883 0l-7.96 2.328Z" stroke="url(#g)" stroke-opacity=".1" stroke-width=".3"/><g filter="url(#h)"><path d="M46.331 19.17a.813.813 0 0 0 1.321-.949 15.005 15.005 0 0 1-1.611-2.867l-.01-.005v.008l-1.382.854a16.431 16.431 0 0 0 1.682 2.958Z" fill="#fff" fill-opacity=".1"/></g><g filter="url(#i)"><path d="M64.643 19.17a.813.813 0 0 1-1.32-.949 14.973 14.973 0 0 0 1.611-2.867l.01-.005v.008l1.38.854a16.385 16.385 0 0 1-1.68 2.958Z" fill="#fff" fill-opacity=".1"/></g><g filter="url(#j)"><path d="M66.507 24.541a.867.867 0 0 0-.613-.253H45.075a.867.867 0 0 0-.867.867v13.88a.867.867 0 0 0 .867.867h20.819a.867.867 0 0 0 .867-.867v-13.88a.868.868 0 0 0-.254-.614Z" fill="#1D1D1D" fill-opacity=".05"/><path d="M66.507 24.541a.867.867 0 0 0-.613-.253H45.075a.867.867 0 0 0-.867.867v13.88a.867.867 0 0 0 .867.867h20.819a.867.867 0 0 0 .867-.867v-13.88a.868.868 0 0 0-.254-.614Z" fill="url(#k)" fill-opacity=".2"/><path d="M66.507 24.541a.867.867 0 0 0-.613-.253H45.075a.867.867 0 0 0-.867.867v13.88a.867.867 0 0 0 .867.867h20.819a.867.867 0 0 0 .867-.867v-13.88a.868.868 0 0 0-.254-.614Zm0 0-.106.107m.106-.107-.106.107m0 0a.717.717 0 0 0-.507-.21H45.075a.718.718 0 0 0-.717.718v13.879a.718.718 0 0 0 .717.717h20.819a.718.718 0 0 0 .717-.718V25.157a.718.718 0 0 0-.21-.508Z" stroke="url(#l)" stroke-opacity=".1" stroke-width=".3"/></g><g filter="url(#m)"><path d="M55.485 34.697a2.602 2.602 0 1 0 0-5.204 2.602 2.602 0 0 0 0 5.204Z" fill="#fff" fill-opacity=".1"/></g></g><defs><filter id="c" x="-80" y="-75.647" width="271" height="194.098" filterUnits="userSpaceOnUse" color-interpolation-filters="sRGB"><feFlood flood-opacity="0" result="BackgroundImageFix"/><feGaussianBlur in="BackgroundImageFix" stdDeviation="40"/><feComposite in2="SourceAlpha" operator="in" result="effect1_backgroundBlur_347_1475"/><feBlend in="SourceGraphic" in2="effect1_backgroundBlur_347_1475" result="shape"/></filter><filter id="f" x="48.982" y="7.811" width="13.005" height="13.696" filterUnits="userSpaceOnUse" color-interpolation-filters="sRGB"><feFlood flood-opacity="0" result="BackgroundImageFix"/><feBlend in="SourceGraphic" in2="BackgroundImageFix" result="shape"/><feColorMatrix in="SourceAlpha" values="0 0 0 0 0 0 0 0 0 0 0 0 0 0 0 0 0 0 127 0" result="hardAlpha"/><feOffset dy="2"/><feGaussianBlur stdDeviation="1"/><feComposite in2="hardAlpha" operator="arithmetic" k2="-1" k3="1"/><feColorMatrix values="0 0 0 0 1 0 0 0 0 1 0 0 0 0 1 0 0 0 0.1 0"/><feBlend in2="shape" result="effect1_innerShadow_347_1475"/></filter><filter id="h" x="44.649" y="15.349" width="3.155" height="6.159" filterUnits="userSpaceOnUse" color-interpolation-filters="sRGB"><feFlood flood-opacity="0" result="BackgroundImageFix"/><feBlend in="SourceGraphic" in2="BackgroundImageFix" result="shape"/><feColorMatrix in="SourceAlpha" values="0 0 0 0 0 0 0 0 0 0 0 0 0 0 0 0 0 0 127 0" result="hardAlpha"/><feOffset dy="2"/><feGaussianBlur stdDeviation="1"/><feComposite in2="hardAlpha" operator="arithmetic" k2="-1" k3="1"/><feColorMatrix values="0 0 0 0 1 0 0 0 0 1 0 0 0 0 1 0 0 0 0.1 0"/><feBlend in2="shape" result="effect1_innerShadow_347_1475"/></filter><filter id="i" x="63.17" y="15.349" width="3.155" height="6.159" filterUnits="userSpaceOnUse" color-interpolation-filters="sRGB"><feFlood flood-opacity="0" result="BackgroundImageFix"/><feBlend in="SourceGraphic" in2="BackgroundImageFix" result="shape"/><feColorMatrix in="SourceAlpha" values="0 0 0 0 0 0 0 0 0 0 0 0 0 0 0 0 0 0 127 0" result="hardAlpha"/><feOffset dy="2"/><feGaussianBlur stdDeviation="1"/><feComposite in2="hardAlpha" operator="arithmetic" k2="-1" k3="1"/><feColorMatrix values="0 0 0 0 1 0 0 0 0 1 0 0 0 0 1 0 0 0 0.1 0"/><feBlend in2="shape" result="effect1_innerShadow_347_1475"/></filter><filter id="j" x="38.208" y="18.288" width="34.553" height="27.614" filterUnits="userSpaceOnUse" color-interpolation-filters="sRGB"><feFlood flood-opacity="0" result="BackgroundImageFix"/><feGaussianBlur in="BackgroundImageFix" stdDeviation="3"/><feComposite in2="SourceAlpha" operator="in" result="effect1_backgroundBlur_347_1475"/><feBlend in="SourceGraphic" in2="effect1_backgroundBlur_347_1475" result="shape"/><feColorMatrix in="SourceAlpha" values="0 0 0 0 0 0 0 0 0 0 0 0 0 0 0 0 0 0 127 0" result="hardAlpha"/><feOffset dy="1"/><feGaussianBlur stdDeviation="1.5"/><feComposite in2="hardAlpha" operator="arithmetic" k2="-1" k3="1"/><feColorMatrix values="0 0 0 0 1 0 0 0 0 1 0 0 0 0 1 0 0 0 0.15 0"/><feBlend in2="shape" result="effect2_innerShadow_347_1475"/></filter><filter id="m" x="52.882" y="29.493" width="5.205" height="7.205" filterUnits="userSpaceOnUse" color-interpolation-filters="sRGB"><feFlood flood-opacity="0" result="BackgroundImageFix"/><feBlend in="SourceGraphic" in2="BackgroundImageFix" result="shape"/><feColorMatrix in="SourceAlpha" values="0 0 0 0 0 0 0 0 0 0 0 0 0 0 0 0 0 0 127 0" result="hardAlpha"/><feOffset dy="2"/><feGaussianBlur stdDeviation="1"/><feComposite in2="hardAlpha" operator="arithmetic" k2="-1" k3="1"/><feColorMatrix values="0 0 0 0 1 0 0 0 0 1 0 0 0 0 1 0 0 0 0.1 0"/><feBlend in2="shape" result="effect1_innerShadow_347_1475"/></filter><linearGradient id="e" x1="38.725" y1="0" x2="78.63" y2="9.294" gradientUnits="userSpaceOnUse"><stop stop-color="#75A5FF"/><stop offset=".703" stop-color="#2339FF"/></linearGradient><linearGradient id="g" x1="49.389" y1="8.343" x2="61.987" y2="8.343" gradientUnits="userSpaceOnUse"><stop stop-color="#3CDEB6"/><stop offset=".656" stop-color="#364AFF"/></linearGradient><linearGradient id="k" x1="44.208" y1="24.288" x2="69.135" y2="33.431" gradientUnits="userSpaceOnUse"><stop stop-color="#87FFE1"/><stop offset=".776" stop-color="#5C6DFF"/></linearGradient><linearGradient id="l" x1="44.913" y1="24.998" x2="66.761" y2="24.998" gradientUnits="userSpaceOnUse"><stop stop-color="#3CDEB6"/><stop offset=".656" stop-color="#364AFF"/></linearGradient><clipPath id="d"><path fill="#fff" transform="translate(35.549)" d="M0 0h39.902v39.902H0z"/></clipPath></defs></svg>
